X:1
T:Mairi's Wedding
M:2/4
L:1/8
K:E
 B,3/2 C/2 B,C| EF G2| FE CE| GF G/2- B3/2| B,3/2 C/2 B,C| EF G2| FE CA,|\
 B,2 B,2| B3/2 B/2 Bc| BA G2| FE CE| G/2 F3/2 G2| B3/2 B/2 Bc| BA G2|\
 FE CA,| B,2 B,2|
